X: 1
T: Saint Patrick's Day
R: jig
Z: 2020 John Chambers <jc:trillian.mit.edu>
S: https://www.facebook.com/groups/Fiddletuneoftheday/
M: 6/8
L: 1/8
K: G
D |\
"G"G2G GAB | dge dBG | "D"AGA "G"BGD | "C"E2E E2D |\
"G"G2G GAB | dge dBG | "D"AGA "G"BGD | "C"E2F "G"G2 :|
|: d |\
"G"def g2g | "D"fed "C"edB | "G"def g2g | "D"fed "Em"e2e |\
"G"def g2g | "D"fed "C"gfe | "G"dBG GAB |
dge dBG | "D"AGA BGD | "Em"E2E E2D |\
"G"G2G GAB | dge dBG | "D"AGA "G"BGD | "C"E2F "G"G2 :|
